public/images/payment/eth.svg

<svg width="138" height="27" viewBox="0 0 138 27" fill="none" xmlns="http://www.w3.org/2000/svg">
<path d="M34.3794 15.946C34.3794 16.1857 34.1718 16.3867 33.9242 16.3867H25.0998C25.3234 18.4978 26.9605 20.4234 29.2685 20.4234C30.8497 20.4234 32.0156 19.8434 32.902 18.6216C33.0298 18.4514 33.2215 18.3432 33.461 18.4437C33.5888 18.4978 33.6846 18.6138 33.7086 18.753C33.7326 18.8922 33.6926 18.9696 33.6527 19.0469C32.7663 20.5471 31.0014 21.2817 29.2685 21.2817C26.2977 21.2817 24.1895 18.7144 24.1895 15.9614C24.1895 13.2085 26.3057 10.6411 29.2685 10.6411C32.2312 10.6334 34.3794 13.193 34.3794 15.946ZM33.4371 15.5206C33.2454 13.4095 31.5764 11.484 29.2685 11.484C26.9605 11.484 25.3234 13.4095 25.0998 15.5206H33.4371ZM45.0805 10.8499C45.336 10.8499 45.5197 11.0664 45.5197 11.2752C45.5197 11.5227 45.328 11.7005 45.0805 11.7005H42.7167V20.6863C42.7167 20.9028 42.525 21.1116 42.2774 21.1116C42.0219 21.1116 41.8382 20.8951 41.8382 20.6863V11.7005H39.5622C39.3067 11.7005 39.123 11.5149 39.123 11.2752C39.123 11.0587 39.3147 10.8499 39.5622 10.8499H41.8382V7.56338C41.8382 7.35458 41.982 7.16126 42.1976 7.13033C42.4931 7.08393 42.7246 7.27725 42.7246 7.5479V10.8499H45.0805ZM59.5109 15.1881V20.6322C59.5109 20.8796 59.2873 21.0575 59.0717 21.0575C58.8162 21.0575 58.6325 20.8719 58.6325 20.6322V15.1881C58.6325 13.3554 57.5624 11.5227 55.4461 11.5227C52.7309 11.5227 51.565 13.8116 51.7247 16.1702C51.7247 16.2321 51.7567 16.5027 51.7567 16.5337V20.6167C51.7567 20.8255 51.6129 21.0188 51.3973 21.0497C51.1018 21.0961 50.8702 20.9028 50.8702 20.6322V2.75344C50.8702 2.53691 51.0619 2.32812 51.3095 2.32812C51.565 2.32812 51.7487 2.54465 51.7487 2.75344V12.8682C52.5073 11.5536 53.8649 10.6643 55.4381 10.6643C58.0256 10.6643 59.5109 12.8682 59.5109 15.1881ZM75.323 15.946C75.323 16.1857 75.1153 16.3867 74.8678 16.3867H66.0434C66.267 18.4978 67.9041 20.4234 70.212 20.4234C71.7932 20.4234 72.9591 19.8434 73.8456 18.6216C73.9733 18.4514 74.165 18.3432 74.4046 18.4437C74.5324 18.4978 74.6282 18.6138 74.6521 18.753C74.6761 18.8922 74.6362 18.9696 74.5962 19.0469C73.7098 20.5471 71.9449 21.2817 70.212 21.2817C67.2413 21.2817 65.133 18.7144 65.133 15.9614C65.133 13.2085 67.2492 10.6411 70.212 10.6411C73.1748 10.6334 75.315 13.193 75.323 15.946ZM74.3726 15.5206C74.181 13.4095 72.5119 11.484 70.204 11.484C67.8961 11.484 66.259 13.4095 66.0354 15.5206H74.3726ZM86.1518 11.2443C86.1518 11.5227 85.9921 11.6696 85.7445 11.7005C83.1571 12.064 81.9912 14.1132 81.9912 16.5027V20.5858C81.9912 20.7945 81.8474 20.9879 81.6318 21.0188C81.3363 21.0652 81.1047 20.8719 81.1047 20.6012V11.2829C81.1047 11.0742 81.2485 10.8808 81.4641 10.8499C81.7596 10.8035 81.9912 10.9968 81.9912 11.2675V13.1621C82.7179 11.9712 84.1713 10.8422 85.6806 10.8422C85.8962 10.8499 86.1518 10.9968 86.1518 11.2443ZM100.638 15.946C100.638 16.1857 100.431 16.3867 100.183 16.3867H91.3586C91.5822 18.4978 93.2193 20.4234 95.5272 20.4234C97.1084 20.4234 98.2743 19.8434 99.1608 18.6216C99.2885 18.4514 99.4802 18.3432 99.7198 18.4437C99.8475 18.4978 99.9434 18.6138 99.9673 18.753C99.9913 18.8922 99.9514 18.9696 99.9114 19.0469C99.025 20.5471 97.2601 21.2817 95.5272 21.2817C92.5565 21.2817 90.4482 18.7144 90.4482 15.9614C90.4482 13.2085 92.5644 10.6411 95.5272 10.6411C98.49 10.6334 100.63 13.193 100.638 15.946ZM99.6878 15.5206C99.4962 13.4095 97.8271 11.484 95.5192 11.484C93.2113 11.484 91.5742 13.4095 91.3506 15.5206H99.6878ZM114.877 11.3525V20.6863C114.877 20.9337 114.653 21.1116 114.438 21.1116C114.182 21.1116 113.999 20.926 113.999 20.6863V18.9154C113.272 20.3228 111.978 21.3281 110.333 21.3281C107.714 21.3281 106.26 19.1242 106.26 16.8043V11.3293C106.26 11.1128 106.452 10.904 106.699 10.904C106.955 10.904 107.139 11.1206 107.139 11.3293V16.8043C107.139 18.637 108.209 20.4698 110.325 20.4698C113.296 20.4698 113.991 17.7787 113.991 14.8169V11.3293C113.991 11.0819 114.246 10.8344 114.558 10.9195C114.749 10.9814 114.877 11.1592 114.877 11.3525ZM137.189 15.1572V20.6322C137.189 20.8796 136.966 21.0575 136.75 21.0575C136.495 21.0575 136.311 20.8719 136.311 20.6322V15.1572C136.311 13.3245 135.241 11.5227 133.125 11.5227C130.473 11.5227 129.459 14.2756 129.459 16.4099V20.6244C129.459 20.8719 129.236 21.0497 129.02 21.0497C128.764 21.0497 128.581 20.8641 128.581 20.6244V15.1495C128.581 13.3167 127.511 11.5149 125.394 11.5149C122.711 11.5149 121.609 13.5642 121.705 16.2862C121.705 16.3481 121.737 16.4718 121.705 16.5027V20.6167C121.705 20.8255 121.561 21.0188 121.346 21.0497C121.05 21.0961 120.818 20.9028 120.818 20.6322V11.2829C120.818 11.0742 120.962 10.8808 121.178 10.8499C121.473 10.8035 121.705 10.9968 121.705 11.2675V12.8295C122.464 11.5149 123.821 10.6566 125.394 10.6566C127.191 10.6566 128.581 11.7547 129.148 13.3786C129.874 11.7856 131.296 10.6566 133.125 10.6566C135.704 10.6643 137.189 12.8373 137.189 15.1572Z" fill="#E1E1E1" stroke="#E1E1E1"/>
<path fill-rule="evenodd" clip-rule="evenodd" d="M8.0592 17.7731L15.986 13.1052L8.0592 0L0.132407 13.1052L8.0592 17.7731ZM16.1202 14.8798L8.0579 26.0399L0 14.8798L8.0579 19.5567L16.1202 14.8798Z" fill="#E1E1E1"/>
</svg>

<svg width="138" height="27" viewBox="0 0 138 27" fill="none" xmlns="http://www.w3.org/2000/svg"><path d="M34.38 15.946c0 .24-.208.44-.456.44H25.1c.223 2.112 1.86 4.037 4.168 4.037 1.582 0 2.748-.58 3.634-1.801.128-.17.32-.279.559-.178.128.054.224.17.248.309.024.14-.016.217-.056.294-.887 1.5-2.652 2.235-4.384 2.235-2.971 0-5.08-2.568-5.08-5.32 0-2.753 2.117-5.32 5.08-5.32 2.962-.009 5.11 2.551 5.11 5.304Zm-.943-.425c-.192-2.112-1.86-4.037-4.168-4.037s-3.946 1.925-4.17 4.037h8.338Zm11.644-4.671c.255 0 .439.216.439.425 0 .248-.192.425-.44.425h-2.363v8.986a.441.441 0 0 1-.44.426.441.441 0 0 1-.439-.426V11.7h-2.276a.422.422 0 0 1-.439-.425c0-.216.192-.425.44-.425h2.275V7.563a.43.43 0 0 1 .36-.433c.295-.046.527.147.527.418v3.302h2.355Zm14.43 4.338v5.444c0 .248-.224.425-.44.425a.422.422 0 0 1-.438-.425v-5.444c0-1.833-1.07-3.665-3.187-3.665-2.715 0-3.881 2.289-3.721 4.647 0 .062.032.333.032.364v4.083a.43.43 0 0 1-.36.433c-.295.046-.527-.147-.527-.418V2.753c0-.216.192-.425.44-.425.255 0 .439.217.439.425v10.115c.758-1.314 2.116-2.204 3.69-2.204 2.587 0 4.072 2.204 4.072 4.524Zm15.812.758c0 .24-.208.44-.455.44h-8.825c.224 2.112 1.861 4.037 4.169 4.037 1.581 0 2.747-.58 3.634-1.801.127-.17.319-.279.559-.178a.415.415 0 0 1 .191.603c-.886 1.5-2.651 2.235-4.384 2.235-2.97 0-5.079-2.568-5.079-5.32 0-2.753 2.116-5.32 5.079-5.32 2.963-.009 5.103 2.551 5.111 5.304Zm-.95-.425c-.192-2.112-1.861-4.037-4.169-4.037s-3.945 1.925-4.169 4.037h8.338Zm11.779-4.277c0 .279-.16.426-.407.457-2.588.363-3.754 2.412-3.754 4.802v4.083a.43.43 0 0 1-.36.433c-.295.046-.526-.147-.526-.418v-9.318a.43.43 0 0 1 .36-.433c.295-.046.526.147.526.418v1.894c.727-1.19 2.18-2.32 3.69-2.32.215.008.47.155.47.402Zm14.486 4.702c0 .24-.207.44-.455.44h-8.824c.223 2.112 1.86 4.037 4.168 4.037 1.581 0 2.747-.58 3.634-1.801.127-.17.32-.279.559-.178a.415.415 0 0 1 .191.603c-.886 1.5-2.65 2.235-4.384 2.235-2.97 0-5.079-2.568-5.079-5.32 0-2.753 2.116-5.32 5.08-5.32 2.962-.009 5.102 2.551 5.11 5.304Zm-.95-.425c-.192-2.112-1.86-4.037-4.169-4.037-2.308 0-3.945 1.925-4.168 4.037h8.337Zm15.189-4.169v9.334c0 .248-.224.426-.439.426a.421.421 0 0 1-.439-.426v-1.77c-.727 1.407-2.021 2.412-3.666 2.412-2.619 0-4.073-2.204-4.073-4.524V11.33c0-.216.192-.425.439-.425.256 0 .44.217.44.425v5.475c0 1.833 1.07 3.666 3.186 3.666 2.971 0 3.666-2.691 3.666-5.653v-3.488c0-.247.255-.495.567-.41a.46.46 0 0 1 .319.433Zm22.312 3.805v5.475c0 .248-.223.425-.439.425a.422.422 0 0 1-.439-.425v-5.475c0-1.832-1.07-3.634-3.186-3.634-2.652 0-3.666 2.753-3.666 4.887v4.214c0 .248-.223.426-.439.426a.421.421 0 0 1-.439-.426V15.15c0-1.833-1.07-3.635-3.187-3.635-2.683 0-3.785 2.05-3.689 4.771 0 .062.032.186 0 .217v4.114a.43.43 0 0 1-.359.433c-.296.046-.528-.147-.528-.418v-9.35a.43.43 0 0 1 .36-.432c.295-.046.527.147.527.418v1.561c.759-1.314 2.116-2.172 3.689-2.172 1.797 0 3.187 1.098 3.754 2.722.726-1.593 2.148-2.722 3.977-2.722 2.579.007 4.064 2.18 4.064 4.5Z" fill="#E1E1E1" stroke="#E1E1E1"/><path fill-rule="evenodd" clip-rule="evenodd" d="m8.06 17.773 7.926-4.668L8.059 0 .132 13.105l7.927 4.668Zm8.06-2.893L8.058 26.04 0 14.88l8.058 4.677 8.062-4.677Z" fill="#E1E1E1"/></svg>
